X: 633
T: Xiaoguafu shangfen
L: 1/16
M: 2/4
K: F
c2 c B G2 G B [I:setbarnb 1]| 
c2 c BG4 | 
c2 c2 f2 d c | 
B8 | 
G2 G Bc4 | 
d2 f dc4 | 
G2 c2 B2 G2 | 
F8 |]

@@@ Tune index: 9507
